icons/evolvere-blue-folders-flat-vivid-dark-fallback/apps/64/plasma.svg

<?xml version="1.0" encoding="UTF-8" standalone="no"?>
<!-- Created with Inkscape (http://www.inkscape.org/) -->

<svg
   xmlns:dc="http://purl.org/dc/elements/1.1/"
   xmlns:cc="http://creativecommons.org/ns#"
   xmlns:rdf="http://www.w3.org/1999/02/22-rdf-syntax-ns#"
   xmlns:svg="http://www.w3.org/2000/svg"
   xmlns="http://www.w3.org/2000/svg"
   xmlns:xlink="http://www.w3.org/1999/xlink"
   xmlns:sodipodi="http://sodipodi.sourceforge.net/DTD/sodipodi-0.dtd"
   xmlns:inkscape="http://www.inkscape.org/namespaces/inkscape"
   width="64"
   height="64"
   id="svg13094"
   version="1.1"
   inkscape:version="0.48.4 r9939"
   sodipodi:docname="plasma.svg">
  <sodipodi:namedview
     id="base"
     pagecolor="#ffffff"
     bordercolor="#666666"
     borderopacity="1.0"
     inkscape:pageopacity="0"
     inkscape:pageshadow="2"
     inkscape:zoom="8.0000004"
     inkscape:cx="53.698289"
     inkscape:cy="34.004462"
     inkscape:document-units="px"
     inkscape:current-layer="svg13094"
     showgrid="true"
     inkscape:snap-bbox="true"
     inkscape:bbox-paths="true"
     inkscape:bbox-nodes="true"
     inkscape:snap-bbox-edge-midpoints="true"
     inkscape:snap-bbox-midpoints="true"
     inkscape:object-paths="true"
     inkscape:snap-intersection-paths="true"
     inkscape:object-nodes="true"
     inkscape:snap-smooth-nodes="true"
     inkscape:snap-midpoints="true"
     inkscape:snap-object-midpoints="true"
     inkscape:snap-center="true"
     showguides="true"
     inkscape:guide-bbox="true"
     inkscape:window-width="1920"
     inkscape:window-height="1025"
     inkscape:window-x="-2"
     inkscape:window-y="32"
     inkscape:window-maximized="1"
     inkscape:snap-global="false"
     fit-margin-top="0"
     fit-margin-left="0"
     fit-margin-right="0"
     fit-margin-bottom="0"
     showborder="true"
     inkscape:showpageshadow="false"
     inkscape:snap-page="true">
    <inkscape:grid
       type="xygrid"
       id="grid3075"
       empspacing="5"
       visible="true"
       enabled="true"
       snapvisiblegridlinesonly="true"
       originx="1.6362304e-08px"
       originy="18px" />
  </sodipodi:namedview>
  <defs
     id="defs13096">
    <linearGradient
       id="linearGradient3386">
      <stop
         style="stop-color:#6a3700;stop-opacity:0.16612799;"
         offset="0"
         id="stop3388" />
      <stop
         style="stop-color:#6b3800;stop-opacity:0;"
         offset="1"
         id="stop3390" />
    </linearGradient>
    <linearGradient
       inkscape:collect="always"
       xlink:href="#linearGradient3386"
       id="linearGradient4315"
       x1="81.374992"
       y1="51.875431"
       x2="81.374992"
       y2="16.873171"
       gradientUnits="userSpaceOnUse" />
  </defs>
  <metadata
     id="metadata13099">
    <rdf:RDF>
      <cc:Work
         rdf:about="">
        <dc:format>image/svg+xml</dc:format>
        <dc:type
           rdf:resource="http://purl.org/dc/dcmitype/StillImage" />
        <dc:title />
      </cc:Work>
    </rdf:RDF>
  </metadata>
  <path
     inkscape:connector-curvature="0"
     style="color:#000000;fill:#3753c1;fill-opacity:1;fill-rule:nonzero;stroke:none;stroke-width:2.28571415000000000;marker:none;visibility:visible;display:inline;overflow:visible;enable-background:accumulate"
     d="m 0,4 0,30 0,28 2,2 30,0 30,0 2,-2 L 64,34 64,4 32,4 0,4 z"
     id="path4095" />
  <path
     inkscape:connector-curvature="0"
     style="color:#000000;fill:#749bff;fill-opacity:1;fill-rule:nonzero;stroke:none;stroke-width:2.28571415000000000;marker:none;visibility:visible;display:inline;overflow:visible;enable-background:accumulate"
     d="M 2,0 0,1 0,4 32,4 64,4 64,1 62,0 32,0 2,0 z"
     id="path4090" />
  <path
     style="fill:#89aaff;fill-opacity:1;fill-rule:nonzero"
     d="M 0,3 0,6 2,4 z"
     id="path4298"
     inkscape:connector-curvature="0"
     sodipodi:nodetypes="cccc" />
  <path
     d="M 64,6 62,4 64,3 z"
     id="path3028"
     style="fill:#5273dc;fill-opacity:1"
     inkscape:connector-curvature="0" />
  <g
     id="g3043"
     inkscape:export-filename="folder.png"
     inkscape:export-xdpi="90"
     inkscape:export-ydpi="90"
     transform="translate(-0.62500009,0.082283)" />
  <g
     id="scalable"
     transform="matrix(1.0385892,0,0,1.0385892,1214.7222,1878.8121)"
     inkscape:label="#g3701"
     style="fill:#ffffff" />
  <path
     inkscape:transform-center-x="-7.8239368"
     sodipodi:type="arc"
     style="color:#000000;fill:#46b9ff;fill-opacity:1;fill-rule:nonzero;stroke:none;marker:none;visibility:visible;display:inline;overflow:visible;enable-background:accumulate"
     id="path4260"
     sodipodi:cx="12.255859"
     sodipodi:cy="11.988281"
     sodipodi:rx="10.595703"
     sodipodi:ry="10.595703"
     d="m 22.851562,11.988281 a 10.595703,10.595703 0 1 1 -21.1914058,0 10.595703,10.595703 0 1 1 21.1914058,0 z"
     transform="matrix(-0.09993936,-0.17558401,0.17558401,-0.09993936,41.444607,23.080559)"
     inkscape:transform-center-y="-14.768719" />
  <path
     transform="matrix(-0.09993936,-0.17558401,0.17558401,-0.09993936,49.714469,37.404401)"
     d="m 22.851562,11.988281 a 10.595703,10.595703 0 1 1 -21.1914058,0 10.595703,10.595703 0 1 1 21.1914058,0 z"
     sodipodi:ry="10.595703"
     sodipodi:rx="10.595703"
     sodipodi:cy="11.988281"
     sodipodi:cx="12.255859"
     id="path4262"
     style="color:#000000;fill:#76c632;fill-opacity:1;fill-rule:nonzero;stroke:none;marker:none;visibility:visible;display:inline;overflow:visible;enable-background:accumulate"
     sodipodi:type="arc"
     inkscape:transform-center-x="-16.093799"
     inkscape:transform-center-y="-0.44487752" />
  <path
     inkscape:transform-center-x="-13.877894"
     sodipodi:type="arc"
     style="color:#000000;fill:#e56245;fill-opacity:1;fill-rule:nonzero;stroke:none;marker:none;visibility:visible;display:inline;overflow:visible;enable-background:accumulate"
     id="path4264"
     sodipodi:cx="12.255859"
     sodipodi:cy="11.988281"
     sodipodi:rx="10.595703"
     sodipodi:ry="10.595703"
     d="m 22.851562,11.988281 a 10.595703,10.595703 0 1 1 -21.1914058,0 10.595703,10.595703 0 1 1 21.1914058,0 z"
     transform="matrix(-0.09993936,-0.17558401,0.17558401,-0.09993936,47.498564,29.13453)"
     inkscape:transform-center-y="-8.7147485" />
  <path
     id="path3384"
     d="m 34.055491,15.374542 c -0.05818,0 -0.11692,-2.57e-4 -0.17438,0.0028 -10.236775,0.09365 -18.506233,8.41904 -18.506233,18.677946 0,10.317105 8.363508,18.680613 18.680613,18.680613 2.897433,0 5.641476,-0.660477 8.088768,-1.837742 l 0.0028,-0.0081 c 4.74442,-2.364514 6.782049,-8.087334 4.550098,-12.936656 -1.89873,-4.125368 -6.288528,-6.314737 -10.562338,-5.604449 -0.0036,0 -0.0071,0 -0.01074,0 -2.897322,0 -5.244956,-2.347646 -5.244956,-5.244961 0,-2.408316 1.622015,-4.43808 3.833782,-5.054471 1.546775,-0.306201 2.712347,-1.668605 2.712347,-3.30526 -2.9e-5,-1.861961 -1.507708,-3.369647 -3.369677,-3.369647 z m -3.302572,2.690889 c -0.03351,0.163749 -0.05556,0.332914 -0.06439,0.504374 0.0088,-0.172377 0.03067,-0.339808 0.06439,-0.504374 z m -0.06439,0.853144 c 0.0082,0.161285 0.02895,0.320338 0.05902,0.474861 -0.03038,-0.155388 -0.0508,-0.312644 -0.05902,-0.474861 z m 2.717713,3.133557 c 0.154532,0.03006 0.313579,0.05085 0.474867,0.05902 -0.162215,-0.0083 -0.319477,-0.02864 -0.474867,-0.05902 z m 8.459,28.971992 c -0.154498,0.07112 -0.310686,0.138727 -0.466815,0.201217 0.156137,-0.06249 0.312317,-0.130107 0.466815,-0.201217 z"
     style="fill:#e1bb35;fill-opacity:1;fill-rule:nonzero;stroke:none"
     inkscape:connector-curvature="0"
     inkscape:transform-center-x="3.0121602"
     inkscape:transform-center-y="-0.44402559" />
  <path
     id="path3394"
     d="m 34.055491,15.374542 c -0.05818,0 -0.11692,-2.57e-4 -0.17438,0.0028 -10.236775,0.09365 -18.506233,8.41904 -18.506233,18.677946 0,10.317105 8.363508,18.680613 18.680613,18.680613 2.897433,0 5.641476,-0.660477 8.088768,-1.837742 l 0.0028,-0.0081 c 4.74442,-2.364514 6.782049,-8.087334 4.550098,-12.936656 -1.89873,-4.125368 -6.288528,-6.314737 -10.562338,-5.604449 -0.0036,0 -0.0071,0 -0.01074,0 -2.897322,0 -5.244956,-2.347646 -5.244956,-5.244961 0,-2.408316 1.622015,-4.43808 3.833782,-5.054471 1.546775,-0.306201 2.712347,-1.668605 2.712347,-3.30526 -2.9e-5,-1.861961 -1.507708,-3.369647 -3.369677,-3.369647 z m -3.302572,2.690889 c -0.03351,0.163749 -0.05556,0.332914 -0.06439,0.504374 0.0088,-0.172377 0.03067,-0.339808 0.06439,-0.504374 z m -0.06439,0.853144 c 0.0082,0.161285 0.02895,0.320338 0.05902,0.474861 -0.03038,-0.155388 -0.0508,-0.312644 -0.05902,-0.474861 z m 2.717713,3.133557 c 0.154532,0.03006 0.313579,0.05085 0.474867,0.05902 -0.162215,-0.0083 -0.319477,-0.02864 -0.474867,-0.05902 z m 8.459,28.971992 c -0.154498,0.07112 -0.310686,0.138727 -0.466815,0.201217 0.156137,-0.06249 0.312317,-0.130107 0.466815,-0.201217 z"
     style="fill:url(#linearGradient4315);fill-opacity:1;fill-rule:nonzero;stroke:none"
     inkscape:connector-curvature="0"
     inkscape:transform-center-x="3.0121602"
     inkscape:transform-center-y="-0.44402559" />
  <path
     id="path4182"
     d="m 34.055491,15.374542 c -0.05818,0 -0.11692,-2.57e-4 -0.17438,0.0028 -10.236775,0.09365 -18.506233,8.41904 -18.506233,18.677946 0,10.317105 8.363508,18.680613 18.680613,18.680613 2.897433,0 5.641476,-0.660477 8.088768,-1.837742 l 0.0028,-0.0081 c 4.74442,-2.364514 6.782049,-8.087334 4.550098,-12.936656 -1.89873,-4.125368 -6.288528,-6.314737 -10.562338,-5.604449 -0.0036,0 -0.0071,0 -0.01074,0 -2.897322,0 -5.244956,-2.347646 -5.244956,-5.244961 0,-2.408316 1.622015,-4.43808 3.833782,-5.054471 1.546775,-0.306201 2.712347,-1.668605 2.712347,-3.30526 -2.9e-5,-1.861961 -1.507708,-3.369647 -3.369677,-3.369647 z m -3.302572,2.690889 c -0.03351,0.163749 -0.05556,0.332914 -0.06439,0.504374 0.0088,-0.172377 0.03067,-0.339808 0.06439,-0.504374 z m -0.06439,0.853144 c 0.0082,0.161285 0.02895,0.320338 0.05902,0.474861 -0.03038,-0.155388 -0.0508,-0.312644 -0.05902,-0.474861 z m 2.717713,3.133557 c 0.154532,0.03006 0.313579,0.05085 0.474867,0.05902 -0.162215,-0.0083 -0.319477,-0.02864 -0.474867,-0.05902 z m 8.459,28.971992 c -0.154498,0.07112 -0.310686,0.138727 -0.466815,0.201217 0.156137,-0.06249 0.312317,-0.130107 0.466815,-0.201217 z"
     style="fill:#ecbe31;fill-opacity:1;fill-rule:nonzero;stroke:none"
     inkscape:connector-curvature="0"
     inkscape:transform-center-x="3.0121602"
     inkscape:transform-center-y="-0.44402559" />
</svg>

<svg xmlns="http://www.w3.org/2000/svg" xmlns:xlink="http://www.w3.org/1999/xlink" viewBox="0 0 64 64"><defs><path id="1" d="m22.851562 11.988281a10.595703 10.595703 0 1 1 -21.19141 0 10.595703 10.595703 0 1 1 21.19141 0" color="#000"/><linearGradient id="0" y1="51.875" x2="0" y2="16.873" gradientUnits="userSpaceOnUse"><stop stop-color="#6a3700" stop-opacity=".166"/><stop offset="1" stop-color="#6b3800" stop-opacity="0"/></linearGradient></defs><g color="#000"><path d="m0 4v30 28l2 2h30 30l2-2v-28-30h-32-32" fill="#3753c1"/><path d="m2 0l-2 1v3h32 32v-3l-2-1h-30-30" fill="#749bff"/></g><path d="m0 3v3l2-2z" fill="#89aaff"/><path d="m64 6l-2-2 2-1z" fill="#5273dc"/><use transform="matrix(-.09994-.17558.17558-.09994 41.44 23.08)" fill="#46b9ff" xlink:href="#1"/><use transform="matrix(-.09994-.17558.17558-.09994 49.714 37.4)" fill="#76c632" xlink:href="#1"/><use transform="matrix(-.09994-.17558.17558-.09994 47.5 29.13)" fill="#e56245" xlink:href="#1"/><path d="m34.06 15.375c-.058 0-.117 0-.174.003-10.237.094-18.506 8.419-18.506 18.678 0 10.317 8.364 18.681 18.681 18.681 2.897 0 5.641-.66 8.089-1.838l.003-.008c4.744-2.365 6.782-8.09 4.55-12.937-1.899-4.125-6.289-6.315-10.562-5.604-.004 0-.007 0-.011 0-2.897 0-5.245-2.348-5.245-5.245 0-2.408 1.622-4.438 3.834-5.05 1.547-.306 2.712-1.669 2.712-3.305 0-1.862-1.508-3.37-3.37-3.37m-3.303 2.691c-.034.164-.056.333-.064.504.009-.172.031-.34.064-.504m-.064.853c.008.161.029.32.059.475-.03-.155-.051-.313-.059-.475m2.718 3.134c.155.03.314.051.475.059-.162-.008-.319-.029-.475-.059m8.459 28.972c-.154.071-.311.139-.467.201.156-.062.312-.13.467-.201" fill="#e1bb35"/><path d="m34.06 15.375c-.058 0-.117 0-.174.003-10.237.094-18.506 8.419-18.506 18.678 0 10.317 8.364 18.681 18.681 18.681 2.897 0 5.641-.66 8.089-1.838l.003-.008c4.744-2.365 6.782-8.09 4.55-12.937-1.899-4.125-6.289-6.315-10.562-5.604-.004 0-.007 0-.011 0-2.897 0-5.245-2.348-5.245-5.245 0-2.408 1.622-4.438 3.834-5.05 1.547-.306 2.712-1.669 2.712-3.305 0-1.862-1.508-3.37-3.37-3.37m-3.303 2.691c-.034.164-.056.333-.064.504.009-.172.031-.34.064-.504m-.064.853c.008.161.029.32.059.475-.03-.155-.051-.313-.059-.475m2.718 3.134c.155.03.314.051.475.059-.162-.008-.319-.029-.475-.059m8.459 28.972c-.154.071-.311.139-.467.201.156-.062.312-.13.467-.201" fill="url(#0)"/><path d="m34.06 15.375c-.058 0-.117 0-.174.003-10.237.094-18.506 8.419-18.506 18.678 0 10.317 8.364 18.681 18.681 18.681 2.897 0 5.641-.66 8.089-1.838l.003-.008c4.744-2.365 6.782-8.09 4.55-12.937-1.899-4.125-6.289-6.315-10.562-5.604-.004 0-.007 0-.011 0-2.897 0-5.245-2.348-5.245-5.245 0-2.408 1.622-4.438 3.834-5.05 1.547-.306 2.712-1.669 2.712-3.305 0-1.862-1.508-3.37-3.37-3.37m-3.303 2.691c-.034.164-.056.333-.064.504.009-.172.031-.34.064-.504m-.064.853c.008.161.029.32.059.475-.03-.155-.051-.313-.059-.475m2.718 3.134c.155.03.314.051.475.059-.162-.008-.319-.029-.475-.059m8.459 28.972c-.154.071-.311.139-.467.201.156-.062.312-.13.467-.201" fill="#ecbe31"/></svg>
